X: 16007
T: Great Hall, The
R: waltz
M: 3/4
K: Cmajor
|:G,2|C2E2F2|G3FE2|FE DE FG|
A4A2|G2DE FG|E3DC2|F2D4|C4:|
|:G2|A2AG AB|c4G2|A2AG AB|c4G2|F2DE FG|
[1 E3Gc2|B2A3B|G4:|2 E3DC2|F2D4|C4||

